X:228
T:Steirische Jodler und Taenze Nr. 1 - 48 (26.)
C:traditionell
A:Salzkammergut
S:MIDI erhalten von Christian Amon. Nach einer kopie im besitz von Johann Stoeckl eines manuscriptes. Stoeckl(zitiert von Amon): "diese sammlung wurde 1935 im hause der familie Hohenlohe-Schillingfuerst gefunden. Sie wurde von einem der beiden brueder Steinegger 1866 verfasst. Die originale sind im Ausseer Kammerhofmuseum".
M:3/4
L:1/8
K:G
V:1
BA |\
G3 B d2 | g3 f e2 | d3 F A2 | d4 dd |\
d3 F A2 | d4 dd | d3 G B2 | d4 BA |*
V:2
dc |\
B3 d g2 | b3 a g2 | f3 c c2 | f4 ff |\
f3 c c2 | f4 ff | c3 B d2 | g4 dc |*
V:1
G3 B d2 | g3 f e2 | d3 F A2 | d4 dd |\
d3 F A2 | d3 c BA | G4 |*
V:2
B3 d g2 | b3 a g2 | f3 c d2 | f4 ff |\
f3 c d2 | f3 e dc | B4 |*
